X: 154
T: 155. Hilf, Herr Jesu, la\ss gelingen
N: Derived from chor155.krn
C: Johann Sebastian Bach
%%abc-version 2.0
%%abcx-abcm2ps-target-version 5.9.1 (29 Sep 2008)
%%abc-creator hum2abc beta
%%abcx-conversion-date 2019/03/11 17:28:18
%%abc-edited-by Craig Stuart Sapp
%%humdrum-veritas 505888207
%%humdrum-veritas-data 1522616178
%%
%%barnumbers 0
L: 1/4
M: 3/4
%%staves [1 2 3 4]
V: 1 clef=treble
V: 2 clef=treble
V: 3 clef=treble-8
V: 4 clef=bass
K: F
[V:1] G2G | 
[V:2] D2D | 
[V:3] B2B | 
[V:4] G,/A,/B,G, | 
[V:1] d2d | 
[V:2] D/E/^FG | 
[V:3] Ad/c/B | 
[V:4] ^F,/E,/D,G,- | 
[V:1] c2B | 
[V:2] A2A/G/ | 
[V:3] _edd | 
[V:4] G,^F,G, | 
[V:1] A2!fermata!A | 
[V:2] G^F/E/!fermata!F | 
[V:3] d2!fermata!d | 
[V:4] D,2!fermata!D, | 
[V:1] d2f | 
[V:2] =F2c | 
[V:3] =f2f | 
[V:4] B,,B,A, | 
[V:1] _e2d | 
[V:2] Bc-c/B/ | 
[V:3] gff | 
[V:4] G,A,B, | 
[V:1] c2c | 
[V:2] B2A | 
[V:3] gf3/_e/ | 
[V:4] _E,F,F,, | 
[V:1] !fermata!B3 | 
[V:2] !fermata!F3 | 
[V:3] !fermata!d3 | 
[V:4] !fermata!B,,3 | 
[V:1] A2B | 
[V:2] ^F2G- | 
[V:3] d2d | 
[V:4] D,C,B,, | 
[V:1] c2c | 
[V:2] G^F/G/A- | 
[V:3] _e2-e/d/ | 
[V:4] A,,G,,^F,, | 
[V:1] B2c | 
[V:2] AG/^F/G- | 
[V:3] d2_e | 
[V:4] G,,G,C, | 
[V:1] A2!fermata!A | 
[V:2] G^F/E/!fermata!F | 
[V:3] d2!fermata!d | 
[V:4] D,2!fermata!D, | 
[V:1] d2d | 
[V:2] ^F/G/AG- | 
[V:3] Ad/c/B | 
[V:4] D,/E,/^F,G, | 
[V:1] c2B | 
[V:2] G^FG | 
[V:3] cdd | 
[V:4] A,D,G, | 
[V:1] A2A | 
[V:2] G2^F | 
[V:3] _e/d/c/_e/d/c/ | 
[V:4] C,A,,D, | 
[V:1] !fermata!G3 | 
[V:2] !fermata!D3 | 
[V:3] !fermata!B3 | 
[V:4] !fermata!G,,3 | 
[V:1] B2B | 
[V:2] G2G | 
[V:3] d2d | 
[V:4] G,,G,F, | 
[V:1] B2B | 
[V:2] G2B | 
[V:3] _e2f | 
[V:4] _E,,_E,D, | 
[V:1] _e2d | 
[V:2] BAB- | 
[V:3] _ecf | 
[V:4] C,,C,B,, | 
[V:1] c2!fermata!c | 
[V:2] BA/G/!fermata!A | 
[V:3] f2!fermata!f | 
[V:4] F,,2!fermata!F, | 
[V:1] c2d | 
[V:2] A2A | 
[V:3] f2^f | 
[V:4] F,_E,D, | 
[V:1] B2c | 
[V:2] G2G | 
[V:3] d2c/d/ | 
[V:4] G,=F,_E,/D,/ | 
[V:1] A2A | 
[V:2] G2^F | 
[V:3] _e/d/c/_e/d/c/ | 
[V:4] C,A,,D, | 
[V:1] G2!fermata!G |]  
[V:2] D2!fermata!D |]  
[V:3] =B2!fermata!=B |]  
[V:4] G,,2!fermata!G,, |]  



